dist/img/icons/dollar-bag.svg

<svg width="13" height="14" viewBox="0 0 13 14" fill="none" xmlns="http://www.w3.org/2000/svg">
<g clip-path="url(#clip0)">
<path d="M7.38384 9.13531C7.3353 9.08214 7.27388 9.04238 7.21041 9.00925C7.07221 8.93718 6.92107 8.89346 6.771 8.854V10.0169C7.01458 9.98937 7.29422 9.90097 7.42211 9.67356C7.48317 9.56494 7.49531 9.43148 7.47044 9.31055C7.45695 9.24503 7.42909 9.18489 7.38384 9.13531Z" fill="#21A101"/>
<path d="M7.42114 9.67623C7.42167 9.67534 7.42197 9.67478 7.42253 9.67383C7.42207 9.67462 7.4216 9.67541 7.42114 9.67623Z" fill="#21A101"/>
<path d="M5.62848 7.27662C5.5866 7.33777 5.56033 7.40724 5.55308 7.48108C5.54583 7.55508 5.54989 7.63739 5.57801 7.70705C5.60477 7.77343 5.66084 7.82243 5.71872 7.86189C5.78366 7.90606 5.85509 7.94057 5.92783 7.96981C5.98886 7.99437 6.0575 8.01787 6.1315 8.04057V6.98828C5.94456 7.02817 5.74032 7.11333 5.62848 7.27662Z" fill="#21A101"/>
<path d="M7.42766 9.66553C7.42601 9.66846 7.42423 9.67152 7.42249 9.67475C7.42453 9.671 7.42614 9.66823 7.42766 9.66553Z" fill="#21A101"/>
<path d="M7.43347 9.65442C7.4339 9.65364 7.43397 9.65357 7.43347 9.65442V9.65442Z" fill="#21A101"/>
<path d="M7.1809 3.32859C8.16984 2.49784 8.83063 0.626269 8.42397 0.544411C7.88364 0.435603 6.71028 0.91271 6.14315 0.996771C5.33876 1.09389 4.46267 0.124506 3.97091 0.664842C3.57108 1.10417 4.25757 2.70187 5.3316 3.39791C2.12727 4.97279 -2.37663 12.8788 5.48067 13.4525C16.3526 14.2462 10.9086 4.86328 7.1809 3.32859ZM8.11459 9.56365C8.08116 9.87188 7.91781 10.1506 7.67364 10.3398C7.41583 10.5396 7.09247 10.6326 6.77118 10.6586V10.9992C6.77118 11.0903 6.73139 11.1784 6.66317 11.2387C6.56941 11.3217 6.43164 11.3422 6.31784 11.2897C6.20549 11.238 6.13168 11.1228 6.13168 10.9992V10.627C6.07658 10.6165 6.02189 10.604 5.96784 10.5892C5.66757 10.5067 5.38905 10.3459 5.1856 10.108C5.08425 9.98937 5.00163 9.85481 4.94449 9.70954C4.92956 9.67157 4.91626 9.63291 4.9046 9.59382C4.89405 9.55842 4.88316 9.52245 4.8794 9.48556C4.87306 9.42368 4.88533 9.36054 4.91418 9.30542C4.97346 9.19202 5.09839 9.12353 5.22595 9.13491C5.35149 9.14604 5.46152 9.23316 5.50104 9.35283C5.51321 9.38969 5.52147 9.42747 5.53515 9.46393C5.5487 9.50015 5.56506 9.53536 5.5843 9.56888C5.6223 9.6349 5.66989 9.69577 5.72471 9.7486C5.83771 9.85747 5.98163 9.92822 6.13168 9.97031V8.70506C5.83829 8.62911 5.53545 8.53101 5.29318 8.34264C5.17544 8.25105 5.07554 8.13726 5.01011 8.00257C4.94106 7.86042 4.91246 7.70206 4.9113 7.54477C4.91011 7.38506 4.94045 7.22676 5.00708 7.08124C5.06948 6.94499 5.15932 6.82267 5.26948 6.72126C5.50502 6.50447 5.81789 6.38355 6.13171 6.33914V6.3113V5.98561C6.13171 5.89451 6.1715 5.80635 6.23972 5.74603C6.33351 5.6631 6.47122 5.64261 6.58505 5.69504C6.69737 5.74677 6.77121 5.86197 6.77121 5.98561V6.3113V6.33721C6.81303 6.34247 6.85472 6.34877 6.8962 6.3563C7.20436 6.41206 7.50576 6.53931 7.73112 6.76149C7.83788 6.86671 7.92527 6.9921 7.98673 7.12884C8.00389 7.16698 8.01891 7.20602 8.03191 7.24581C8.04402 7.28292 8.05619 7.32113 8.06198 7.35985C8.07121 7.42167 8.06179 7.48554 8.03533 7.5421C7.98113 7.65798 7.85956 7.73176 7.73167 7.72629C7.60601 7.72081 7.49215 7.63898 7.44715 7.52152C7.43376 7.48658 7.42706 7.4496 7.41338 7.41476C7.39959 7.37949 7.38172 7.34584 7.36114 7.31406C7.32113 7.25227 7.26928 7.19929 7.21008 7.15563C7.08191 7.06099 6.92646 7.01168 6.77112 6.98412V8.19492C6.95573 8.23912 7.14049 8.28733 7.31736 8.35708C7.58469 8.46249 7.838 8.62412 7.98391 8.879C7.96127 8.83929 7.93925 8.8006 7.98468 8.88031C8.02928 8.95862 8.00799 8.9213 7.98559 8.88205C8.10168 9.08664 8.13983 9.33126 8.11459 9.56365Z" fill="#21A101"/>
<path d="M7.41822 9.68213C7.41622 9.68572 7.41447 9.68888 7.41309 9.69129C7.41427 9.68921 7.41605 9.68608 7.41822 9.68213Z" fill="#21A101"/>
</g>
<defs>
<clipPath id="clip0">
<rect width="13" height="13" fill="white" transform="translate(0 0.5)"/>
</clipPath>
</defs>
</svg>

<svg width="13" height="14" fill="none" xmlns="http://www.w3.org/2000/svg"><g clip-path="url(#clip0)" fill="#21A101"><path d="M7.384 9.135a.618.618 0 00-.174-.126 2.093 2.093 0 00-.439-.155v1.163c.244-.028.523-.116.651-.343a.531.531 0 00.048-.363.365.365 0 00-.086-.176zm.037.541l.002-.002-.002.002zM5.628 7.277a.49.49 0 00-.05.43.362.362 0 00.14.155c.066.044.137.079.21.108.06.024.13.048.204.07V6.989c-.187.04-.392.125-.504.289zm1.8 2.389l-.006.009.006-.01zm.005-.012s.001 0 0 0z"/><path d="M7.18 3.329C8.17 2.498 8.83.626 8.425.544c-.54-.108-1.714.369-2.28.453-.805.097-1.681-.872-2.173-.332-.4.44.287 2.037 1.36 2.733-3.204 1.575-7.708 9.48.15 10.055 10.872.793 5.428-8.59 1.7-10.124zm.935 6.235a1.143 1.143 0 01-.441.776c-.258.2-.582.293-.903.319v.34c0 .091-.04.18-.108.24a.322.322 0 01-.345.05.323.323 0 01-.186-.29v-.372a2.13 2.13 0 01-.164-.038 1.57 1.57 0 01-.782-.481 1.41 1.41 0 01-.281-.514c-.011-.036-.022-.072-.026-.108a.32.32 0 01.622-.133c.012.037.02.074.034.11a.815.815 0 00.19.285.94.94 0 00.407.222V8.705c-.294-.076-.597-.174-.839-.362a.976.976 0 01-.283-.34 1.064 1.064 0 01-.099-.458 1.09 1.09 0 01.358-.824c.236-.217.549-.337.863-.382v-.353c0-.091.04-.18.108-.24a.322.322 0 01.345-.051.323.323 0 01.186.29v.353c.042.005.084.012.125.02.308.055.61.182.835.404a1.22 1.22 0 01.331.599.32.32 0 01-.615.162c-.013-.035-.02-.072-.034-.107a.61.61 0 00-.203-.26 1.037 1.037 0 00-.439-.17v1.21c.185.044.37.092.546.162.268.105.521.267.667.522a1.935 1.935 0 010 .001 1.14 1.14 0 01.13.683zm-.697.118l-.005.01.005-.01z"/></g><defs><clipPath id="clip0"><path fill="#fff" transform="translate(0 .5)" d="M0 0h13v13H0z"/></clipPath></defs></svg>
